X:197
T:Mason's Apron
R:hp 32 reel
C:Trad
M:4/4
L:1/8
K:A
g2 |: a2 A2A3F | EFAB cABc | d2 B2B3A | GABc defg |
| a2 A2A3F | EFAB cA Bc | dcde fgaf |1 edcB A2 g2 :|2 edcB A2 ed|
|: c2e2f2e2 | c2e2 fedc | d2f2g2f2 | d2f2 gfed |
| c2e2f2e2 | c2e2 fedc | dcde fgaf |1edcB A2 ed :|2 edcB A2 g2 |

